!!!OTL: NUN BRICHT AUS ALLEN ZWEIGEN
!!!ARE: Europa, Mitteleuropa, Deutschland
!!!SCT: B0198
!!!YEM: Copyright 1995, estate of Helmut Schaffrath.
**kern
*ICvox
*Ivox
*M2/4
*k[f#c#g#]
*A:
{8a
=1
8g#
8e
8a
8b
=2
4cc#
8b}
{8cc#
=3
8dd
8cc#
8b
8a
=4
8.g#
16f#
8e}
{8a
=5
8g#
8e
8a
8b
=6
4cc#
8b}
{8cc#
=7
8.dd
16cc#
8b
16cc#
16b
=8
4a
8r}
{8cc#
=9
8cc#
8cc#
8cc#
8cc#
=10
8.b
16b
8b}
{8dd#
=11
8ee
8dd#
8ee
8ff#
=12
8.b
16dd#
8ee}
{8a
=13
8g#
8e
8a
8b
=14
8.cc#
16cc#
8b}
{8cc#
=15
8dd
8cc#
8b
16cc#
16b
=16
4.a}
==
!!!AGN: Jahreszeiten - Lied, Fruehling
!!!ONB: ESAC (Essen Associative Code) Database: BOEHME
!!!AMT: simple duple
!!!AIN: vox
!!!EED: Helmut Schaffrath
!!!EEV: 1.0
*-
